img/Logo.svg

<svg width="150" height="35" viewBox="0 0 150 35" fill="none" xmlns="http://www.w3.org/2000/svg">
<g clip-path="url(#clip0_4_3318)">
<path d="M17.15 0C7.67748 0 0 7.67746 0 17.15C0 26.0201 6.73548 33.3175 15.3711 34.207C14.8496 29.9134 15.0436 26.4001 15.7067 23.5135C15.3347 21.7225 14.4898 19.0703 12.5734 17.1864C12.5734 17.1864 13.8348 19.0784 14.5181 21.6214C14.5181 21.6255 14.5221 21.6295 14.5221 21.6335C14.5949 21.9044 14.6596 22.1793 14.7162 22.4623C14.7283 22.527 14.7404 22.5917 14.7526 22.6604C14.8051 22.9515 14.8536 23.2426 14.886 23.5418C5.19513 22.3532 3.12921 13.6569 3.35561 10.3781C13.665 10.9482 15.7754 17.8292 16.0827 22.0985C19.4585 11.0412 30.1843 10.4024 31.0697 10.3781C31.4538 18.8763 25.1509 25.5026 17.6149 26.0807C17.6635 25.8503 17.7201 25.6198 17.7767 25.3934C17.7928 25.3247 17.813 25.26 17.8333 25.1913C17.8777 25.0296 17.9222 24.8679 17.9748 24.7061C17.995 24.6374 18.0192 24.5646 18.0394 24.4959C18.096 24.318 18.1567 24.1442 18.2173 23.9663C18.2335 23.9259 18.2456 23.8854 18.2618 23.845C18.3386 23.6348 18.4195 23.4326 18.5003 23.2305C18.5084 23.2143 18.5125 23.1941 18.5205 23.1779C18.5205 23.1779 18.5205 23.1779 18.5246 23.1779C20.4571 18.5043 24.0229 15.4439 24.0229 15.4439C17.0247 19.4868 15.8441 29.9983 15.6582 34.2231C16.1514 34.2676 16.6446 34.2999 17.15 34.2999C26.6225 34.2999 34.3 26.6225 34.3 17.15C34.3 7.67746 26.6225 0 17.15 0Z" fill="#46A358"/>
<path d="M46.7037 10.7454C48.9718 10.7454 50.8235 11.7197 52.0242 13.4986L49.7764 15.4109C48.9718 14.287 47.9975 13.7048 46.6471 13.7048C44.5691 13.7048 43.2753 15.0713 43.2753 17.1534C43.2753 19.2719 44.6418 20.695 46.8372 20.695C48.0177 20.695 48.9556 20.2826 49.554 19.5913V19.0091H46.6673V16.2357H52.7762V20.133C52.194 21.164 51.3693 21.9887 50.3019 22.6234C49.2346 23.242 48.0339 23.5614 46.7037 23.5614C42.9923 23.618 39.9237 20.7314 39.9763 17.1534C39.9197 13.5956 42.9923 10.6888 46.7037 10.7454Z" fill="#46A358"/>
<path d="M61.9576 23.3316L59.168 19.4908H57.8379V23.3316H54.6157V10.9684H59.4672C62.2204 10.9684 64.2459 12.6543 64.2459 15.2215C64.2459 16.7376 63.5141 17.995 62.2972 18.7429L65.5558 23.3316H61.9576ZM57.8338 16.681H59.4833C60.3809 16.681 60.963 16.0988 60.963 15.2215C60.963 14.3442 60.3809 13.7782 59.4833 13.7782H57.8338V16.681Z" fill="#46A358"/>
<path d="M66.8333 10.9684H75.4124V13.8712H70.0555V15.5773H73.876V18.2739H70.0555V20.4288H75.6388V23.3316H66.8333V10.9684Z" fill="#46A358"/>
<path d="M77.6441 10.9684H86.2231V13.8712H80.8663V15.5773H84.6868V18.2739H80.8663V20.4288H86.4495V23.3316H77.6441V10.9684Z" fill="#46A358"/>
<path d="M99.4192 10.9684V23.558H98.3882L91.681 17.057V23.3316H88.4588V10.742H89.4897L96.197 17.15V10.9684H99.4192Z" fill="#46A358"/>
<path d="M103.264 19.135C103.996 20.1094 104.764 20.7279 106.017 20.7279C106.862 20.7279 107.291 20.4288 107.291 19.8264C107.291 19.2846 107.008 19.1148 106.033 18.6822L104.76 18.1203C102.718 17.2187 101.631 16.0584 101.631 14.3927C101.631 12.2015 103.43 10.7379 105.957 10.7379C107.998 10.7379 109.442 11.7123 110.19 13.2284L108.035 14.8779C107.436 13.9803 106.874 13.568 105.993 13.568C105.318 13.568 104.889 13.8307 104.889 14.3563C104.889 14.8051 105.152 15.0517 105.957 15.3671L107.38 15.9654C109.535 16.867 110.545 17.9505 110.545 19.693C110.545 22.0904 108.576 23.5539 106.009 23.5539C103.782 23.5539 101.982 22.4866 101.081 20.7805L103.264 19.135Z" fill="#46A358"/>
<path d="M112.393 10.9684H115.615V15.4843H120.131V10.9684H123.353V23.3316H120.131V18.3871H115.615V23.3316H112.393V10.9684Z" fill="#46A358"/>
<path d="M131.843 10.742C135.441 10.6652 138.607 13.6084 138.53 17.15C138.603 20.7279 135.441 23.6146 131.843 23.558C128.229 23.6146 125.116 20.7279 125.193 17.15C125.116 13.6084 128.229 10.6692 131.843 10.742ZM131.859 13.7014C129.874 13.7014 128.488 15.1083 128.488 17.15C128.488 18.1809 128.807 19.0218 129.426 19.6606C130.044 20.2792 130.869 20.5986 131.859 20.5986C133.772 20.5986 135.231 19.2119 135.231 17.15C135.235 15.1083 133.772 13.7014 131.859 13.7014Z" fill="#46A358"/>
<path d="M140.374 10.9684H145.226C147.979 10.9684 150.004 12.6543 150.004 15.2215C150.004 17.7524 147.926 19.4908 145.226 19.4908H143.596V23.3316H140.374V10.9684ZM145.242 16.681C146.139 16.681 146.721 16.0988 146.721 15.2215C146.721 14.3442 146.139 13.7782 145.242 13.7782H143.592V16.681H145.242Z" fill="#46A358"/>
</g>
<defs>
<clipPath id="clip0_4_3318">
<rect width="150" height="34.2999" fill="white"/>
</clipPath>
</defs>
</svg>

<svg width="150" height="35" fill="none" xmlns="http://www.w3.org/2000/svg"><g clip-path="url(#a)" fill="#46A358"><path d="M17.15 0C7.677 0 0 7.677 0 17.15c0 8.87 6.735 16.168 15.371 17.057-.521-4.294-.327-7.807.336-10.694-.372-1.79-1.217-4.443-3.134-6.327 0 0 1.262 1.892 1.945 4.435 0 .005.004.009.004.013a13.036 13.036 0 0 1 .364 1.908c-9.69-1.189-11.757-9.885-11.53-13.164 10.309.57 12.42 7.451 12.727 11.72 3.376-11.057 14.101-11.696 14.987-11.72.384 8.498-5.92 15.125-13.455 15.703.049-.23.105-.461.162-.688.016-.068.036-.133.056-.202.045-.161.09-.323.142-.485l.064-.21c.057-.178.118-.352.178-.53.017-.04.029-.08.045-.121.077-.21.157-.412.238-.614.008-.017.012-.037.02-.053h.005c1.932-4.674 5.498-7.734 5.498-7.734-6.998 4.043-8.179 14.554-8.365 18.78.493.044.987.076 1.492.076 9.473 0 17.15-7.677 17.15-17.15C34.3 7.677 26.623 0 17.15 0ZM46.704 10.745c2.268 0 4.12.975 5.32 2.754l-2.248 1.912c-.804-1.124-1.779-1.706-3.129-1.706-2.078 0-3.372 1.366-3.372 3.448 0 2.119 1.367 3.542 3.562 3.542 1.18 0 2.119-.412 2.717-1.104v-.582h-2.887v-2.773h6.11v3.897c-.583 1.031-1.408 1.856-2.475 2.49-1.067.619-2.268.938-3.598.938-3.712.057-6.78-2.83-6.728-6.408-.056-3.557 3.016-6.464 6.728-6.408ZM61.958 23.331l-2.79-3.84h-1.33v3.84h-3.222V10.968h4.851c2.753 0 4.779 1.686 4.779 4.253 0 1.517-.732 2.774-1.949 3.522l3.259 4.588h-3.598Zm-4.124-6.65h1.65c.897 0 1.48-.582 1.48-1.46 0-.877-.583-1.443-1.48-1.443h-1.65v2.903ZM66.834 10.968h8.579v2.903h-5.357v1.706h3.82v2.697h-3.82v2.155h5.583v2.902h-8.805V10.968ZM77.644 10.968h8.579v2.903h-5.357v1.706h3.82v2.697h-3.82v2.155h5.583v2.902h-8.805V10.968ZM99.42 10.968v12.59h-1.032l-6.707-6.501v6.274H88.46v-12.59h1.03l6.708 6.409v-6.182h3.222ZM103.264 19.135c.732.974 1.5 1.593 2.753 1.593.845 0 1.274-.3 1.274-.902 0-.541-.283-.711-1.257-1.144l-1.274-.562c-2.042-.901-3.129-2.062-3.129-3.727 0-2.192 1.799-3.655 4.326-3.655 2.041 0 3.485.974 4.233 2.49l-2.155 1.65c-.599-.898-1.16-1.31-2.042-1.31-.675 0-1.104.263-1.104.788 0 .449.263.696 1.068 1.01l1.423.6c2.155.9 3.165 1.984 3.165 3.727 0 2.397-1.968 3.86-4.536 3.86-2.227 0-4.026-1.067-4.928-2.773l2.183-1.645ZM112.393 10.968h3.222v4.516h4.516v-4.516h3.222v12.363h-3.222v-4.944h-4.516v4.944h-3.222V10.968ZM131.843 10.742c3.599-.077 6.764 2.866 6.687 6.408.073 3.578-3.088 6.464-6.687 6.408-3.614.056-6.727-2.83-6.65-6.408-.077-3.542 3.036-6.481 6.65-6.408Zm.017 2.96c-1.986 0-3.372 1.406-3.372 3.448 0 1.03.319 1.872.938 2.51.618.619 1.443.938 2.434.938 1.912 0 3.371-1.386 3.371-3.448.004-2.042-1.459-3.449-3.371-3.449ZM140.374 10.968h4.851c2.754 0 4.779 1.686 4.779 4.253 0 2.531-2.078 4.27-4.779 4.27h-1.629v3.84h-3.222V10.968Zm4.868 5.713c.897 0 1.479-.582 1.479-1.46 0-.877-.582-1.443-1.479-1.443h-1.65v2.903h1.65Z"/></g><defs><clipPath id="a"><path fill="#fff" d="M0 0h150v34.3H0z"/></clipPath></defs></svg>
